X: 271
T: Street Player
C:Ed Reavy
R:reel
M:4/4
L:1/8
K:D
"D"DFAd ~f3e|dcde fdAF|"G"G2FG "Em"~E3F|"G"GBAF "Em"EGFE|
"D"F~D3 FGA=c|"G"B~G3 Bcde|"D"faaf "A"gecd|1 "D" eddc dBAF:|2eddc d2de||
"D"fgfe dfaf|"G"gfed "A"cdeg|"D"fddc "G"dedB|"A"cAAG ABAG|
"D"F~D3 FGA=c|"G"B~G3 Bcde|"D"faaf "A"gecd|1 "D" eddc d2de:|2eddc dBAF||


